X: 191
T: The Limerick tinker
C: anon.
O: Ireland
B: Francis O'Neill: "The Dance Music of Ireland" (1907) no. 191
R: Double jig
Z: Transcribed by Frank Nordberg - http://www.musicaviva.com
F: http://www.musicaviva.com/abc/tunes/ireland/oneill-1001/oneill-1001-019
1.abc
M: 6/8
L: 1/8
K: Gmix
A2B cBA|BAG AGE|A2B cee|dBA G2({A/G/}E)|A2B cBA|BAG A2 e/^f/|gbg g2e|dBG
G2B:|
|:efe edB|e2A ABd|efe edB|dBG GBd|efe edB|e2A A2 (e/^f/)|gbg g2e|dBG G2B:
|
|:({c/d/}c2)A B2A|({e/f/}e2)A A2B|({c/d/}c2)A B2A|dBA GAB|cBA BAG|AGE GAB
|gbg g2e|dBG G2B:|
W:
W:
W: From Musica Viva - http://www.musicaviva.com
W: the Internet center for free sheet music downloads.


